X: 18125
T: Humours Of Carrigaholt, The
R: reel
M: 4/4
K: Dmajor
dcAF GBAG|F2DE FGAB|=cBAF G2FG|Addc defe|
dcAF GBAG|F2DE FGAB|=cBAF G2FG|Addc d3e||
fdde fdgf|edcd efge|fdd2 fdgf|edcd e3d|
fded fdgf|edcd efge|agfa gfec|Addc d4||

